public/assets/SH-logo.svg

<svg width="193" height="124" viewBox="0 0 193 124" fill="none" xmlns="http://www.w3.org/2000/svg">
<path d="M11.581 34.3794L24.2968 41.3632C30.6218 44.5915 31.4783 49.2694 31.4783 52.6295C31.4783 62.3146 22.5179 64.6206 15.9953 64.6206H15.2047C12.174 64.4888 9.14327 63.5664 8.87973 63.5005C7.29849 63.0393 6.04668 62.9075 5.19017 62.9075C3.27951 62.9075 2.68655 63.5664 2.68655 63.5664V52.4977C4.2019 58.1638 9.80212 62.1828 15.2047 62.4463H15.7976C20.1461 62.4463 26.7345 60.338 26.7345 54.2766C26.7345 51.773 26.3392 48.8082 22.452 46.5681L7.16672 38.0689C4.13602 36.1583 2.68655 33.0617 2.68655 30.031V29.8333C2.75243 25.6167 6.70553 19.9506 15.2047 19.9506C17.3789 19.9506 20.4755 20.1482 23.4403 20.873V20.9388C25.2851 21.4659 26.7345 21.5977 27.8546 21.5977C29.0405 21.5977 29.6994 21.4 29.6994 21.4V31.6781C27.3275 25.0896 20.4096 22.1248 15.2047 22.1248H15.0729C10.9222 22.1907 7.6938 24.8919 7.6938 28.9109C7.6938 32.0075 9.47269 33.0617 11.581 34.3794ZM34.9017 20.6753H66.7241V30.0968C65.4064 25.8143 61.4533 22.9154 57.039 22.9154H53.5471V58.0321C53.5471 59.218 53.8766 60.338 54.4036 61.3922C54.9307 62.3805 55.6555 63.3029 56.6437 64.0276H44.9821C46.8928 62.644 48.0787 60.4039 48.0787 58.0321V22.9154H44.5868C40.1725 22.9154 36.2194 25.8143 34.9017 30.0968V20.6753ZM88.2963 19.9506C100.221 19.9506 109.907 29.9651 109.907 42.2856C109.907 54.606 100.221 64.6206 88.2963 64.6206C76.3711 64.6206 66.686 54.606 66.686 42.2856C66.686 29.9651 76.3711 19.9506 88.2963 19.9506ZM88.2963 62.4463C97.7837 62.4463 104.109 53.4201 104.109 42.2856C104.109 31.151 98.0473 22.1248 88.2963 22.1248C78.6771 22.1248 72.4839 31.151 72.4839 42.2856C72.4839 53.4201 78.743 62.4463 88.2963 62.4463ZM85.9244 42.2856L88.2963 37.8054L90.734 42.2856L88.2963 46.7657L85.9244 42.2856ZM130.445 37.8054C131.368 37.0148 132.158 36.0924 132.751 34.9723C133.344 33.8523 133.608 32.6664 133.608 31.2828C133.608 28.9768 133.015 27.0003 131.763 25.3531C130.511 23.706 128.337 22.9154 125.24 22.9154H119.904V46.3704L130.445 37.8054ZM145.599 64.0276H133.937C134.728 63.1711 135.123 62.1828 135.123 61.1287C135.123 60.4039 134.925 59.7451 134.596 59.0862L126.294 44.1303L119.904 49.467V58.0321C119.904 59.218 120.167 60.338 120.76 61.3922C121.353 62.3805 122.078 63.3029 123 64.0276H111.339C113.381 62.3805 114.435 60.4039 114.435 58.0321V27.2638C114.435 26.0779 114.172 24.8261 113.579 23.5742C113.052 22.3883 112.327 21.4 111.339 20.6753H125.767C130.05 20.6753 133.344 21.2683 135.65 22.4542C137.956 23.6401 139.076 25.8802 139.076 29.1086C139.076 31.2828 138.351 33.1276 136.968 34.7747C135.518 36.4218 133.805 38.003 131.763 39.6502L131.302 40.0455L130.511 40.6384L140.46 58.3615C141.711 60.6675 143.424 62.5122 145.599 64.0276ZM188.16 61.3922C188.687 62.3805 189.478 63.3029 190.4 64.0276H178.738C180.649 62.644 181.835 60.4039 181.835 58.0321V25.8802L181.703 26.012L169.317 52.2342L166.22 58.625L165.034 56.0555L152.582 29.8333V57.8344C152.582 59.0862 152.911 60.2721 153.438 61.3263C154.031 62.3805 154.888 63.3029 155.876 64.0276H147.048C149.156 62.644 150.408 60.338 150.408 57.8344V26.8685C150.408 25.8802 150.144 24.8261 149.749 23.9695L149.551 23.3766H149.485C148.958 22.3224 148.102 21.4 147.048 20.6753H154.295L168.065 49.6647L181.835 20.6753H190.4C188.489 22.0589 187.303 24.8919 187.303 27.2638V58.0321C187.303 59.218 187.633 60.338 188.16 61.3922ZM38.454 78.2914V110.71C38.454 113.21 39.7035 115.57 41.7861 117.028H29.4294C31.512 115.57 32.6921 113.21 32.6921 110.71V93.7026H10.2002V110.71C10.2002 113.21 11.4497 115.57 13.4629 117.028H1.17559C3.18876 115.57 4.43832 113.21 4.43832 110.71V78.2914C4.43832 75.7923 3.18876 72.8072 1.17559 71.3494H13.4629C11.4497 72.8072 10.2002 75.7923 10.2002 78.2914V91.3423H32.6921V78.2914C32.6921 75.7923 31.512 72.8072 29.4294 71.3494H41.7861C39.7035 72.8072 38.454 75.7923 38.454 78.2914ZM79.3715 117.028H67.0842C68.3338 115.986 69.028 114.459 69.028 112.932C69.028 112.376 68.9585 111.752 68.7503 111.196L65.6264 101.964L53.3391 111.891C51.7424 113.071 51.1177 114.181 51.1177 115.153C51.1177 115.917 51.5342 116.542 52.0201 117.028H42.6485C45.1476 115.5 46.9525 113.21 47.9244 110.502L52.0201 98.4925L61.2529 71.3494L69.5833 95.7157L70.4163 98.076L74.7898 110.849C75.2063 112.099 75.8311 113.279 76.5947 114.32C77.3583 115.362 78.3302 116.264 79.3715 117.028ZM50.0069 111.682L63.4744 100.714C64.0992 100.228 64.3768 99.5338 64.3768 98.8396C64.3768 98.5619 64.3074 98.2843 64.238 98.0066L59.448 83.9144L50.1458 111.057C50.0764 111.266 50.0069 111.474 50.0069 111.682ZM98.7721 117.652C92.4549 117.652 87.1096 115.362 82.6668 110.71C78.2239 106.129 76.0025 100.575 76.0025 94.1191C76.0025 87.663 78.2239 82.1095 82.6668 77.4583C87.1096 72.8766 92.4549 70.5858 98.7721 70.5858C101.827 70.5858 104.673 71.1411 107.38 72.3213C107.38 72.3907 107.38 72.3907 107.45 72.3907C109.255 73.0849 110.851 73.432 112.17 73.432C113.142 73.432 114.044 73.2932 114.878 73.0155C115.155 72.9461 115.294 72.9461 115.294 72.8766H115.433V86.4135H115.363C111.962 77.3889 106.408 72.8766 98.7721 72.8766C95.3706 72.8766 92.4549 73.8485 89.9558 75.7228C87.4567 77.6666 85.513 80.2351 84.194 83.4284C82.8056 86.6217 82.1114 90.1622 82.1114 94.1191C82.1114 100.02 83.6386 104.879 86.7625 108.697C89.8864 112.585 93.9822 114.806 99.0498 115.292L101.549 115.431C106.617 115.431 110.782 113.973 113.975 111.127C114.669 110.502 115.849 109.322 117.515 107.448C113.767 114.251 107.519 117.652 98.7721 117.652ZM154.384 111.127C155.286 112.724 156.119 114.043 156.883 114.945C157.647 115.847 158.618 116.542 159.868 117.028L159.59 117.166C159.382 117.236 159.035 117.375 158.618 117.444C158.202 117.514 157.647 117.583 156.883 117.583C154.453 117.583 152.371 116.611 150.496 114.598C149.386 113.557 148.414 112.099 147.511 110.363L134.946 87.9407H134.877L128.213 93.4943V110.71C128.213 111.96 128.49 113.14 129.046 114.32C129.601 115.362 130.434 116.264 131.475 117.028H119.119C121.271 115.362 122.381 113.279 122.381 110.71V78.222C122.381 76.9724 122.104 75.7228 121.548 74.4039C120.924 73.0849 120.16 72.113 119.119 71.3494H131.475C130.434 72.113 129.601 73.0849 129.046 74.4039C128.49 75.7228 128.213 76.9724 128.213 78.222V90.3704L142.097 79.055C143.346 78.1525 144.249 76.9724 144.873 75.584C145.151 74.8898 145.29 74.1956 145.29 73.5014C145.29 72.8072 145.151 72.0436 144.873 71.3494H155.078L145.429 79.2633L139.459 84.1921L154.384 111.127ZM170.862 85.7887L184.26 93.1472C190.925 96.5488 191.827 101.478 191.827 105.018C191.827 115.223 182.386 117.652 175.513 117.652H174.68C171.487 117.514 168.294 116.542 168.016 116.472C166.35 115.986 165.031 115.847 164.129 115.847C162.115 115.847 161.491 116.542 161.491 116.542V104.879C163.087 110.849 168.988 115.084 174.68 115.362H175.305C179.887 115.362 186.829 113.14 186.829 106.753C186.829 104.116 186.412 100.992 182.317 98.6314L166.211 89.6762C163.018 87.663 161.491 84.4003 161.491 81.207V80.9987C161.56 76.5559 165.725 70.5858 174.68 70.5858C176.971 70.5858 180.234 70.794 183.358 71.5577V71.6271C185.302 72.1824 186.829 72.3213 188.009 72.3213C189.259 72.3213 189.953 72.113 189.953 72.113V82.9425C187.454 76.0005 180.165 72.8766 174.68 72.8766H174.542C170.168 72.9461 166.767 75.7923 166.767 80.0269C166.767 83.2896 168.641 84.4003 170.862 85.7887Z" fill="#F1ECEB"/>
<path d="M54.1059 9.11922C52.5275 9.11922 51.488 8.37531 51.4069 7.14023L51.4021 7.0687H52.58L52.5895 7.12593C52.6801 7.71724 53.2857 8.08442 54.1489 8.08442C55.0167 8.08442 55.5604 7.69816 55.5604 7.10685V7.10208C55.5604 6.58707 55.2027 6.31049 54.3158 6.12451L53.5766 5.97192C52.2223 5.69057 51.5547 5.06111 51.5547 4.03585V4.03108C51.5595 2.81985 52.6229 1.99964 54.1059 1.99964C55.6081 1.99964 56.5904 2.79124 56.6619 3.96909L56.6667 4.05016H55.4888L55.4793 3.99293C55.3982 3.39208 54.8689 3.03444 54.0964 3.03444C53.2905 3.0392 52.7898 3.41593 52.7898 3.96432V3.96909C52.7898 4.45549 53.1665 4.74161 53.9963 4.91328L54.7402 5.06587C56.1708 5.36153 56.7954 5.9433 56.7954 7.01625V7.02102C56.7954 8.30378 55.7845 9.11922 54.1059 9.11922ZM57.7158 9V2.11886H62.1029V3.15365H58.9461V5.18986H61.8311V6.19127H58.9461V9H57.7158ZM65.832 9.11922C64.0867 9.11922 62.9994 8.09396 62.9994 6.57276V2.11886H64.2297V6.47262C64.2297 7.42635 64.8115 8.05104 65.832 8.05104C66.8525 8.05104 67.4295 7.42635 67.4295 6.47262V2.11886H68.655V6.57276C68.655 8.09396 67.5821 9.11922 65.832 9.11922ZM74.2487 9.11922C72.6702 9.11922 71.6307 8.37531 71.5496 7.14023L71.5448 7.0687H72.7227L72.7322 7.12593C72.8228 7.71724 73.4284 8.08442 74.2916 8.08442C75.1595 8.08442 75.7031 7.69816 75.7031 7.10685V7.10208C75.7031 6.58707 75.3454 6.31049 74.4585 6.12451L73.7193 5.97192C72.365 5.69057 71.6974 5.06111 71.6974 4.03585V4.03108C71.7022 2.81985 72.7656 1.99964 74.2487 1.99964C75.7508 1.99964 76.7331 2.79124 76.8046 3.96909L76.8094 4.05016H75.6316L75.622 3.99293C75.541 3.39208 75.0116 3.03444 74.2391 3.03444C73.4332 3.0392 72.9325 3.41593 72.9325 3.96432V3.96909C72.9325 4.45549 73.3092 4.74161 74.139 4.91328L74.8829 5.06587C76.3135 5.36153 76.9382 5.9433 76.9382 7.01625V7.02102C76.9382 8.30378 75.9272 9.11922 74.2487 9.11922ZM80.6911 9.11922C78.9458 9.11922 77.8585 8.09396 77.8585 6.57276V2.11886H79.0888V6.47262C79.0888 7.42635 79.6706 8.05104 80.6911 8.05104C81.7116 8.05104 82.2886 7.42635 82.2886 6.47262V2.11886H83.5141V6.57276C83.5141 8.09396 82.4412 9.11922 80.6911 9.11922ZM84.7349 9V2.11886H87.4816C88.9504 2.11886 89.8469 2.93429 89.8469 4.26474V4.27428C89.8469 5.1994 89.3509 5.94807 88.5498 6.23896L90.0519 9H88.6499L87.2956 6.42494H85.9652V9H84.7349ZM85.9652 5.45213H87.3529C88.1302 5.45213 88.5879 5.02296 88.5879 4.28382V4.27428C88.5879 3.55422 88.1015 3.1155 87.329 3.1155H85.9652V5.45213ZM93.8621 9.11922C91.8545 9.11922 90.6051 7.75539 90.6051 5.5332V5.52843C90.6051 3.3444 91.8545 1.99964 93.8382 1.99964C95.4691 1.99964 96.5277 2.94383 96.79 4.21229L96.8091 4.28859H95.5597L95.5454 4.23613C95.2831 3.49699 94.687 3.06782 93.843 3.06782C92.6031 3.06782 91.8592 3.97386 91.8592 5.5189V5.52366C91.8592 7.10208 92.6365 8.05104 93.8764 8.05104C94.9159 8.05104 95.6312 7.41204 95.6551 6.44878L95.6598 6.34387H93.9527V5.38537H96.8615V6.12928C96.8615 7.99859 95.7457 9.11922 93.8621 9.11922ZM97.8677 9V2.11886H102.322V3.15365H99.098V5.00865H102.145V6.0053H99.098V7.96521H102.322V9H97.8677Z" fill="#F1ECEB"/>
<path fill-rule="evenodd" clip-rule="evenodd" d="M111.439 9.87833C113.89 9.87833 115.878 7.89085 115.878 5.43917C115.878 2.98748 113.89 1 111.439 1C108.987 1 107 2.98748 107 5.43917C107 7.89085 108.987 9.87833 111.439 9.87833ZM110.155 5.75663L111.712 1.76958L112.913 3.81742L111.402 4.8783L112.158 5.82246L112.915 6.76668L110.508 8.61215L111.24 6.15399L110.155 5.75663Z" fill="#F1ECEB"/>
<path d="M122.831 9.11922C121.252 9.11922 120.213 8.37531 120.132 7.14023L120.127 7.0687H121.305L121.314 7.12593C121.405 7.71724 122.01 8.08442 122.874 8.08442C123.741 8.08442 124.285 7.69816 124.285 7.10685V7.10208C124.285 6.58707 123.927 6.31049 123.041 6.12451L122.301 5.97192C120.947 5.69057 120.279 5.06111 120.279 4.03585V4.03108C120.284 2.81985 121.348 1.99964 122.831 1.99964C124.333 1.99964 125.315 2.79124 125.387 3.96909L125.391 4.05016H124.214L124.204 3.99293C124.123 3.39208 123.594 3.03444 122.821 3.03444C122.015 3.0392 121.515 3.41593 121.515 3.96432V3.96909C121.515 4.45549 121.891 4.74161 122.721 4.91328L123.465 5.06587C124.896 5.36153 125.52 5.9433 125.52 7.01625V7.02102C125.52 8.30378 124.509 9.11922 122.831 9.11922ZM126.441 9V2.11886H130.828V3.15365H127.671V5.18986H130.556V6.19127H127.671V9H126.441ZM134.142 9.11922C132.563 9.11922 131.524 8.37531 131.443 7.14023L131.438 7.0687H132.616L132.625 7.12593C132.716 7.71724 133.322 8.08442 134.185 8.08442C135.053 8.08442 135.596 7.69816 135.596 7.10685V7.10208C135.596 6.58707 135.239 6.31049 134.352 6.12451L133.613 5.97192C132.258 5.69057 131.591 5.06111 131.591 4.03585V4.03108C131.595 2.81985 132.659 1.99964 134.142 1.99964C135.644 1.99964 136.626 2.79124 136.698 3.96909L136.703 4.05016H135.525L135.515 3.99293C135.434 3.39208 134.905 3.03444 134.132 3.03444C133.326 3.0392 132.826 3.41593 132.826 3.96432V3.96909C132.826 4.45549 133.202 4.74161 134.032 4.91328L134.776 5.06587C136.207 5.36153 136.831 5.9433 136.831 7.01625V7.02102C136.831 8.30378 135.82 9.11922 134.142 9.11922ZM140.169 9.11922C138.591 9.11922 137.551 8.37531 137.47 7.14023L137.466 7.0687H138.643L138.653 7.12593C138.744 7.71724 139.349 8.08442 140.212 8.08442C141.08 8.08442 141.624 7.69816 141.624 7.10685V7.10208C141.624 6.58707 141.266 6.31049 140.379 6.12451L139.64 5.97192C138.286 5.69057 137.618 5.06111 137.618 4.03585V4.03108C137.623 2.81985 138.686 1.99964 140.169 1.99964C141.672 1.99964 142.654 2.79124 142.725 3.96909L142.73 4.05016H141.552L141.543 3.99293C141.462 3.39208 140.932 3.03444 140.16 3.03444C139.354 3.0392 138.853 3.41593 138.853 3.96432V3.96909C138.853 4.45549 139.23 4.74161 140.06 4.91328L140.804 5.06587C142.234 5.36153 142.859 5.9433 142.859 7.01625V7.02102C142.859 8.30378 141.848 9.11922 140.169 9.11922Z" fill="#F1ECEB"/>
</svg>

<svg xmlns="http://www.w3.org/2000/svg" width="193" height="124" fill="none" viewBox="0 0 193 124">
    <path fill="#F1ECEB"
        d="m11.581 34.38 12.716 6.983c6.325 3.228 7.181 7.906 7.181 11.266 0 9.686-8.96 11.992-15.483 11.992h-.79c-3.031-.132-6.062-1.055-6.325-1.12-1.582-.462-2.833-.594-3.69-.594-1.91 0-2.503.66-2.503.66v-11.07c1.515 5.667 7.115 9.686 12.518 9.95h.593c4.348 0 10.936-2.109 10.936-8.17 0-2.504-.395-5.469-4.282-7.709l-15.285-8.5c-3.031-1.91-4.48-5.006-4.48-8.037v-.198c.065-4.216 4.019-9.882 12.518-9.882 2.174 0 5.27.197 8.235.922v.066c1.845.527 3.294.659 4.415.659 1.186 0 1.844-.198 1.844-.198v10.278c-2.372-6.588-9.29-9.553-14.494-9.553h-.132c-4.15.066-7.38 2.767-7.38 6.786 0 3.096 1.78 4.15 3.888 5.468m23.32-13.704h31.823v9.422c-1.318-4.283-5.27-7.182-9.685-7.182h-3.492v35.117c0 1.186.33 2.306.857 3.36.527.988 1.251 1.91 2.24 2.636H44.982c1.91-1.384 3.097-3.624 3.097-5.996V22.915h-3.492c-4.414 0-8.368 2.9-9.685 7.182zm53.395-.724c11.925 0 21.611 10.014 21.611 22.335 0 12.32-9.686 22.335-21.61 22.335-11.926 0-21.611-10.015-21.611-22.335s9.685-22.335 21.61-22.335m0 42.495c9.488 0 15.813-9.026 15.813-20.16s-6.062-20.161-15.813-20.161c-9.619 0-15.812 9.026-15.812 20.16s6.259 20.161 15.812 20.161m-2.372-20.16 2.372-4.48 2.438 4.48-2.438 4.48zm44.521-4.48c.923-.791 1.713-1.714 2.306-2.834s.857-2.306.857-3.69c0-2.305-.593-4.282-1.845-5.929s-3.426-2.438-6.523-2.438h-5.336V46.37zm15.154 26.222h-11.662c.791-.857 1.186-1.845 1.186-2.9 0-.724-.198-1.383-.527-2.042l-8.302-14.956-6.39 5.337v8.565c0 1.186.263 2.306.856 3.36.593.988 1.318 1.91 2.24 2.636h-11.661c2.042-1.647 3.096-3.624 3.096-5.996V27.264c0-1.186-.263-2.438-.856-3.69-.527-1.186-1.252-2.174-2.24-2.899h14.428q6.424 0 9.883 1.78c3.459 1.78 3.426 3.425 3.426 6.654 0 2.174-.725 4.019-2.108 5.666-1.45 1.647-3.163 3.228-5.205 4.875l-.461.395-.791.593 9.949 17.723c1.251 2.306 2.964 4.151 5.139 5.667m42.561-2.636c.527.988 1.318 1.91 2.24 2.636h-11.662c1.911-1.384 3.097-3.624 3.097-5.996V25.88l-.132.132-12.386 26.222-3.097 6.391-1.186-2.57-12.452-26.222v28.001c0 1.252.329 2.438.856 3.492.593 1.054 1.45 1.977 2.438 2.702h-8.828a7.38 7.38 0 0 0 3.36-6.194V26.868c0-.988-.264-2.042-.659-2.898l-.198-.593h-.066c-.527-1.055-1.383-1.977-2.437-2.702h7.247l13.77 28.99 13.77-28.99h8.565c-1.911 1.384-3.097 4.217-3.097 6.589v30.768c0 1.186.33 2.306.857 3.36m-149.706 16.9v32.418c0 2.5 1.25 4.86 3.332 6.318H29.43c2.083-1.458 3.263-3.818 3.263-6.318V93.703H10.2v17.007c0 2.5 1.25 4.86 3.263 6.318H1.176c2.013-1.458 3.262-3.818 3.262-6.318V78.291c0-2.499-1.25-5.484-3.262-6.942h12.287c-2.013 1.458-3.263 4.443-3.263 6.942v13.051h22.492v-13.05c0-2.5-1.18-5.485-3.263-6.943h12.357c-2.083 1.458-3.332 4.443-3.332 6.942m40.918 38.737H67.084c1.25-1.042 1.944-2.569 1.944-4.096 0-.556-.07-1.18-.278-1.736l-3.124-9.232-12.287 9.927c-1.597 1.18-2.221 2.29-2.221 3.262 0 .764.416 1.389.902 1.875h-9.372c2.5-1.528 4.304-3.818 5.276-6.526l4.096-12.01 9.233-27.143 8.33 24.367.833 2.36 4.374 12.773a12.7 12.7 0 0 0 1.805 3.471c.763 1.042 1.735 1.944 2.776 2.708m-29.364-5.346 13.467-10.968c.625-.486.903-1.18.903-1.874 0-.278-.07-.556-.139-.833l-4.79-14.093-9.302 27.143c-.07.209-.14.417-.14.625m48.766 5.97c-6.317 0-11.662-2.29-16.105-6.942-4.443-4.581-6.665-10.135-6.665-16.59q0-9.685 6.665-16.662c4.443-4.581 9.788-6.872 16.105-6.872 3.055 0 5.901.555 8.608 1.735 0 .07 0 .07.07.07 1.805.694 3.401 1.041 4.72 1.041a8.5 8.5 0 0 0 2.708-.416c.277-.07.416-.07.416-.14h.139v13.538h-.07c-3.401-9.025-8.955-13.537-16.59-13.537-3.402 0-6.318.972-8.817 2.846-2.5 1.944-4.443 4.512-5.762 7.705-1.388 3.194-2.083 6.734-2.083 10.691 0 5.901 1.528 10.76 4.651 14.578 3.124 3.888 7.22 6.109 12.288 6.595l2.499.139c5.068 0 9.233-1.458 12.426-4.304.694-.625 1.874-1.805 3.54-3.679q-5.622 10.204-18.743 10.204m55.612-6.525c.902 1.597 1.735 2.916 2.499 3.818s1.735 1.597 2.985 2.083l-.278.138c-.208.07-.555.209-.972.278s-.971.139-1.735.139c-2.43 0-4.512-.972-6.387-2.985-1.11-1.041-2.082-2.499-2.985-4.235l-12.565-22.422h-.069l-6.664 5.553v17.216c0 1.25.277 2.43.833 3.61.555 1.042 1.388 1.944 2.429 2.708h-12.356c2.152-1.666 3.262-3.749 3.262-6.318V78.222c0-1.25-.277-2.5-.833-3.818-.624-1.32-1.388-2.291-2.429-3.055h12.356c-1.041.764-1.874 1.736-2.429 3.055-.556 1.319-.833 2.568-.833 3.818V90.37l13.884-11.315c1.249-.903 2.152-2.083 2.776-3.471q.417-1.041.417-2.083c0-.694-.139-1.457-.417-2.152h10.205l-9.649 7.914-5.97 4.93zm16.478-25.338 13.398 7.358c6.665 3.402 7.567 8.331 7.567 11.871 0 10.205-9.441 12.634-16.314 12.634h-.833c-3.193-.138-6.386-1.11-6.664-1.18-1.666-.486-2.985-.625-3.887-.625-2.014 0-2.638.695-2.638.695v-11.663c1.596 5.97 7.497 10.205 13.189 10.483h.625c4.582 0 11.524-2.222 11.524-8.609 0-2.637-.417-5.761-4.512-8.122l-16.106-8.955c-3.193-2.013-4.72-5.276-4.72-8.469v-.208c.069-4.443 4.234-10.413 13.189-10.413 2.291 0 5.554.208 8.678.972v.07c1.944.554 3.471.693 4.651.693 1.25 0 1.944-.208 1.944-.208v10.83c-2.499-6.943-9.788-10.066-15.273-10.066h-.138c-4.374.07-7.775 2.915-7.775 7.15 0 3.263 1.874 4.373 4.095 5.762M54.106 9.119c-1.579 0-2.618-.744-2.7-1.979l-.004-.071h1.178l.01.057c.09.591.696.958 1.559.958.868 0 1.411-.386 1.411-.977v-.005c0-.515-.357-.791-1.244-.977l-.74-.153c-1.354-.281-2.021-.91-2.021-1.936V4.03C51.559 2.82 52.623 2 54.105 2c1.503 0 2.485.791 2.557 1.969l.005.081h-1.178l-.01-.057c-.08-.601-.61-.959-1.383-.959-.806.005-1.306.382-1.306.93v.005c0 .486.376.773 1.206.944l.744.153c1.43.295 2.055.877 2.055 1.95v.005c0 1.283-1.01 2.098-2.69 2.098M57.716 9V2.119h4.388v1.035h-3.157V5.19h2.885v1.001h-2.885V9zm8.117.12C64.088 9.12 63 8.094 63 6.573V2.119h1.23v4.354c0 .953.582 1.578 1.603 1.578s1.598-.625 1.598-1.578V2.119h1.225v4.454c0 1.521-1.073 2.546-2.823 2.546m8.417 0c-1.579 0-2.618-.744-2.7-1.979l-.004-.071h1.178l.01.057c.09.591.695.958 1.559.958.867 0 1.411-.386 1.411-.977v-.005c0-.515-.358-.791-1.245-.977l-.739-.153c-1.354-.281-2.022-.91-2.022-1.936v-.005C71.702 2.82 72.766 2 74.25 2c1.502 0 2.484.791 2.556 1.969l.004.081h-1.177l-.01-.057c-.081-.601-.61-.959-1.383-.959-.806.005-1.307.382-1.307.93v.005c0 .486.377.773 1.207.944l.744.153c1.43.295 2.055.877 2.055 1.95v.005c0 1.283-1.01 2.098-2.69 2.098m6.443 0c-1.745 0-2.833-1.025-2.833-2.546V2.119h1.23v4.353c0 .954.583 1.579 1.603 1.579s1.598-.625 1.598-1.579V2.12h1.225v4.454c0 1.521-1.073 2.546-2.823 2.546M84.735 9V2.119h2.747c1.468 0 2.365.815 2.365 2.146v.01c0 .924-.496 1.673-1.297 1.964L90.052 9H88.65l-1.354-2.575h-1.33V9zm1.23-3.548h1.388c.777 0 1.235-.429 1.235-1.168v-.01c0-.72-.487-1.159-1.259-1.159h-1.364zm7.897 3.667c-2.007 0-3.257-1.364-3.257-3.586v-.005c0-2.184 1.25-3.528 3.233-3.528 1.631 0 2.69.944 2.952 2.212l.02.077h-1.25l-.015-.053c-.262-.739-.858-1.168-1.702-1.168-1.24 0-1.984.906-1.984 2.45v.006c0 1.578.777 2.527 2.017 2.527 1.04 0 1.755-.639 1.78-1.602l.004-.105h-1.707v-.959h2.908v.744c0 1.87-1.115 2.99-2.999 2.99M97.868 9V2.119h4.454v1.035h-3.224v1.855h3.047v.996h-3.047v1.96h3.224V9z" />
    <path fill="#F1ECEB" fill-rule="evenodd"
        d="M111.439 9.878a4.44 4.44 0 1 0 0-8.878 4.44 4.44 0 0 0 0 8.878m-1.284-4.121 1.557-3.987 1.201 2.047-1.511 1.061.756.944.757.945-2.407 1.845.732-2.458z"
        clip-rule="evenodd" />
    <path fill="#F1ECEB"
        d="M122.831 9.12c-1.579 0-2.618-.745-2.699-1.98l-.005-.071h1.178l.009.057c.091.591.696.958 1.56.958.867 0 1.411-.386 1.411-.977v-.005c0-.515-.358-.792-1.244-.978l-.74-.152c-1.354-.281-2.022-.91-2.022-1.936V4.03c.005-1.21 1.069-2.03 2.552-2.03 1.502 0 2.484.791 2.556 1.969l.004.081h-1.177l-.01-.057c-.081-.601-.61-.959-1.383-.959-.806.005-1.306.382-1.306.93v.005c0 .486.376.773 1.206.944l.744.153c1.431.295 2.055.877 2.055 1.95v.005c0 1.283-1.011 2.098-2.689 2.098m3.61-.119V2.119h4.387v1.035h-3.157V5.19h2.885v1.001h-2.885V9zm7.701.12c-1.579 0-2.618-.745-2.699-1.98l-.005-.071h1.178l.009.057c.091.591.697.958 1.56.958.868 0 1.411-.386 1.411-.977v-.005c0-.515-.357-.792-1.244-.978l-.739-.152c-1.355-.281-2.022-.91-2.022-1.936V4.03c.004-1.21 1.068-2.03 2.551-2.03 1.502 0 2.484.791 2.556 1.969l.005.081h-1.178l-.01-.057c-.081-.601-.61-.959-1.383-.959-.806.005-1.306.382-1.306.93v.005c0 .486.376.773 1.206.944l.744.153c1.431.295 2.055.877 2.055 1.95v.005c0 1.283-1.011 2.098-2.689 2.098m6.027 0c-1.578 0-2.618-.744-2.699-1.979l-.004-.071h1.177l.01.057c.091.591.696.958 1.559.958.868 0 1.412-.386 1.412-.977v-.005c0-.515-.358-.792-1.245-.978l-.739-.152c-1.354-.281-2.022-.911-2.022-1.936V4.03c.005-1.21 1.068-2.03 2.551-2.03 1.503 0 2.485.791 2.556 1.969l.005.081h-1.178l-.009-.057c-.081-.601-.611-.959-1.383-.959-.806.005-1.307.382-1.307.93v.005c0 .486.377.773 1.207.944l.744.153c1.43.295 2.055.877 2.055 1.95v.005c0 1.283-1.011 2.098-2.69 2.098" />
</svg>
